packages/match-logos/mono/svg/emc.svg

<svg width="100" height="32" viewBox="0 0 100 32" fill="none" xmlns="http://www.w3.org/2000/svg">
<g clip-path="url(#clip0)">
<path d="M23.0399 23.76C22.8799 24.64 21.3599 27.92 20.7999 28.32H10.4799V19.04H18.4799C19.1999 19.6 20.3199 21.92 20.4799 22.56C20.7199 23.2 21.0399 23.04 21.0399 22.24C21.0399 20.24 20.9599 15.44 21.1199 12.88C21.1199 12.72 20.7199 12.4 20.4799 12.96C19.9199 14.56 18.9599 16.16 18.3999 16.4H10.4799V8.16H19.9999C20.3999 8.4 22.2399 11.04 22.4799 12.08C22.5599 12.48 23.1199 12.56 23.0399 12.16V5.52L0.399944 5.44C0.0799444 5.52 -0.0800556 6 0.239944 6.16C3.11994 7.28 4.23994 7.12 4.23994 10.88V24.8C4.23994 29.92 3.75994 28.96 0.239944 30.64C-0.0800556 30.8 -0.160056 31.6 0.399944 31.52C3.51994 31.2 4.31994 31.2 7.59994 31.2L23.6799 31.44V23.76C23.6799 23.44 23.1199 23.44 23.0399 23.76ZM68.4799 30.8C67.9199 30.72 64.3199 29.2 64.0799 28.56L61.9999 8.32C62.3999 7.84 65.8399 6.32 66.1599 6.24C66.4799 6.08 66.3999 5.36 65.9999 5.44C65.5999 5.52 63.3599 5.76 62.7999 5.76H55.6799L47.1999 22.08L39.1199 5.52L28.5599 5.28C28.0799 5.28 28.3199 6 28.4799 6.08C29.8399 6.56 32.8799 6.88 32.7199 9.28L30.9599 23.84C30.3199 30.48 29.3599 29.6 26.4799 30.56C25.4399 30.88 26.2399 31.44 26.7199 31.36C27.5999 31.2 35.7599 31.04 37.9199 31.28C38.2399 31.28 38.2399 30.8 37.8399 30.64C37.4399 30.48 34.3999 29.92 33.7599 28.64L35.3599 11.6L44.5599 31.44H46.2399L56.3199 11.12L57.7599 28.72C57.2799 29.6 54.9599 30.4 53.7599 30.72C52.7999 31.04 53.6799 31.36 53.9199 31.36C56.0799 31.2 66.3199 31.2 68.5599 31.36C68.7999 31.44 68.8799 30.88 68.4799 30.8ZM98.8799 7.36C98.6399 7.68 97.9999 8.96 97.6799 9.04H94.1599C94.1599 9.04 96.3999 7.28 97.5199 6.24C99.7599 4 99.1199 1.92 98.1599 0.960002C97.1999 1.6205e-06 94.5599 -1.04 91.4399 1.84C91.1999 2.4 91.6799 2.8 92.3199 2.4C96.3999 0.0800016 96.6399 4 95.4399 5.44C94.2399 6.88 92.7199 8.64 91.1199 9.84V11.2C92.0799 11.2 98.0799 11.2 99.1199 11.28V7.52C99.1999 7.28 99.0399 7.2 98.8799 7.36ZM89.5999 23.68C89.3599 24 88.2399 28.24 87.1999 28.8C84.8799 30 79.2799 30.72 76.3199 24.8C74.3999 20.88 74.3199 15.6 77.1199 10.72C79.9999 5.68 85.4399 7.12 86.0799 7.52C87.2799 8.24 88.0799 9.84 88.6399 11.92C88.8799 12.72 89.3599 12.56 89.4399 12L89.6799 5.28C86.7199 4.88 79.3599 3.68 73.1999 8.16C66.8799 12.8 65.1199 24.72 73.3599 30.08C78.7999 33.68 88.7999 31.2 89.5199 30.8C89.8399 30.64 90.1599 30.4 90.1599 30.16C90.1599 29.84 90.2399 23.92 90.2399 23.6C90.2399 23.36 89.8399 23.44 89.5999 23.68Z" fill="#1F304C"/>
</g>
<defs>
<clipPath id="clip0">
<rect width="99.2" height="32" fill="white"/>
</clipPath>
</defs>
</svg>

<svg fill="none" height="32" viewBox="0 0 100 32" width="100" xmlns="http://www.w3.org/2000/svg" xmlns:xlink="http://www.w3.org/1999/xlink"><clipPath id="a"><path d="m0 0h99.2v32h-99.2z"/></clipPath><g clip-path="url(#a)"><path d="m23.0399 23.76c-.16.88-1.68 4.16-2.24 4.56h-10.32v-9.28h8c.72.56 1.84 2.88 2 3.52.24.64.56.48.56-.32 0-2-.08-6.8.08-9.36 0-.16-.4-.48-.64.08-.56 1.6-1.52 3.2-2.08 3.44h-7.92v-8.24h9.52c.4.24 2.24 2.88 2.48 3.92.08.4.64.48.56.08v-6.64l-22.639956-.08c-.3199996.08-.4799996.56-.16.72 2.879996 1.12 3.999996.96 3.999996 4.72v13.92c0 5.12-.48 4.16-3.999996 5.84-.3199996.16-.4.96.16.88 3.119996-.32 3.919996-.32 7.199996-.32l16.07996.24v-7.68c0-.32-.56-.32-.64 0zm45.44 7.04c-.56-.08-4.16-1.6-4.4-2.24l-2.08-20.24c.4-.48 3.84-2 4.16-2.08.32-.16.24-.88-.16-.8s-2.64.32-3.2.32h-7.12l-8.48 16.32-8.08-16.56-10.56-.24c-.48 0-.24.72-.08.8 1.36.48 4.4.8 4.24 3.2l-1.76 14.56c-.64 6.64-1.6 5.76-4.48 6.72-1.04.32-.24.88.24.8.88-.16 9.04-.32 11.2-.08.32 0 .32-.48-.08-.64s-3.44-.72-4.08-2l1.6-17.04 9.2 19.84h1.68l10.08-20.32 1.44 17.6c-.48.88-2.8 1.68-4 2-.96.32-.08.64.16.64 2.16-.16 12.4-.16 14.64 0 .24.08.32-.48-.08-.56zm30.4-23.44c-.24.32-.88 1.6-1.2 1.68h-3.52s2.24-1.76 3.36-2.8c2.24-2.24 1.6-4.32.64-5.279998-.96-.96000038-3.6-2.000002-6.72.879998-.24.56.24.96.88.56 4.08-2.3199984 4.32 1.6 3.12 3.04s-2.72 3.2-4.32 4.4v1.36c.96 0 6.96 0 8 .08v-3.76c.08-.24-.08-.32-.24-.16zm-9.28 16.32c-.24.32-1.36 4.56-2.4 5.12-2.32 1.2-7.92 1.92-10.88-4-1.92-3.92-2-9.2.8-14.08 2.88-5.04 8.32-3.6 8.96-3.2 1.2.72 2 2.32 2.56 4.4.24.8.72.64.8.08l.24-6.72c-2.96-.4-10.32-1.6-16.48 2.88-6.32 4.64-8.08 16.56.16 21.92 5.44 3.6 15.44 1.12 16.16.72.32-.16.64-.4.64-.64 0-.32.08-6.24.08-6.56 0-.24-.4-.16-.64.08z" fill="#1f304c"/></g></svg>
